X: 21813
T: THE NANTASKET HORNPIPE
R: hornpipe
B: K\"ohler's Violin Repository, v.2, 1885 p.181 #3
F: http://www.archive.org/details/klersviolinrepos02rugg
Z: 2012 John Chambers <jc:trillian.mit.edu>
M: C|
L: 1/8
K: A
uE2 !segno!|\
cEAB cEAB | {d}cBcf ecAc | B2^A2 BEGB | eGBe gfdB |
cEAB cEAB | {d}cBcf ecAc | Begf (3efe (3dcB | Aaec A2 :|
|: u((3efg) |\
(a3f) (g3e) | {g}fefg fece | (a3f) (g3f) | egbc' bafg |
(3aaa (af) (3ggg (ge) | {g}fefg fece | fgag {g}fece | fgaf ecBA !segno!:|

%%sep 2 1 500

